X:1
T:Title
%%score { ( 1 3 ) | ( 2 4 ) }
L:1/8
Q:1/4=156
M:6/4
K:D
V:1 treble nm="Grand Piano"
V:3 treble 
V:2 bass 
V:4 bass 
V:1
 F2 F2 F2 F2 E2 F2 | [A,FA]2 [A,EG]2 [A,DF]2 [CE]6 | %2
w: Clinton~D.~Lowden * * * * *||
 [A,CG]2 [CEG]2 [B,DG]2 [A,CG]2 [=C^DF]2 [^CEG]2 | [GB]2 [A,FA]2 [A,EG]2 [A,DF]6 | %4
w: ||
 [DFA]2 [CFA]2 [B,FA]2 [A,FA]2 [B,=F^G]2 [^FA]2 | [Fd]2 [Gc]2 [A=c]2 [GB]6 | %6
w: ||
 [Bd]2 [CAc]2 [DGB]2 [DFA]2 [DF]2 [A,=CD]2 | [B,G]2 [A,CF]2[K:bass] [G,CE]2 [F,D]6 | .A12 | .d12 | %10
w: ||||
 .A12 | A12 | .G12 | .e12 | .d12 | A12 | .A12 | .d12 | .E12 | A2- [FA-]2 [FA]2 G6 | .F12 | .B12 | %22
w: ||||||||||||
 D12- | D12 |] %24
w: ||
V:2
 [D,A,D]2 [D,A,D]2 [D,A,D]2 [D,A,D]2 [G,A,C]2 [F,A,D]2 | C,2 C,2 D,2 A,6 | %2
 A,,2 A,,2 A,,2 A,,2 A,,2 A,,2 | [A,,A,]2 B,,2 C,2 D,6 | D,2 D,2 D,2 D,2 D,2 D,2 | %5
 [D,A,]2 [E,A,]2 [F,D]2 [G,D]6 | [G,B,]2 G,2 G,2 A,2 A,2 F,,2 | G,,2 A,,2 A,,2 D,6 | %8
 D,2 D,2 D,2 D,2 D,2 D,2 | [D,A,]2 [F,A,]2 A,2 [D,A,]2 [D,B,]2 D,2 | %10
 D,2 A,,2 A,,2 [D,D]2 [D,A,D]2 [D,G,D]2 | [D,F,D]2 [D,F,]2 [D,F,]2 [D,F,]6 | %12
 [A,CE]2 [A,B,]2[K:treble] [A,D]2 [A,C]2 [A,=C^D]2 [A,^CE]2 | %13
 [A,CG]2 [CE]2 [B,D]2 [A,C]2 [A,EG]2 [A,CG]2 | [D,A,]2 [D,A,]2 [D,A,]2 [E,^G,]2 [E,G,E]2 [E,G,D]2 | %15
 z2 E,2 F,2 G,6 | D,2 D,2 D,2 D,2 D,2 D,2 | [D,A,]2 [F,A,]2 A,2 [D,A,]2 [D,D]2 [D,A,D]2 | %18
 [G,B,D]2 [G,B,]2 [G,B,]2 [G,B,]2 [G,B,D]2 [F,B,^D]2 | [^D,B,]2 [D,B,]2 [D,B,]2 [E,B,E]6 | %20
 [A,D]2 A,2 A,2 A,2 [G,A,C]2 [F,A,]2 | [E,G,D]2 [E,G,]2 [E,G,]2 [A,,G,]2 [A,,G,]2 [A,,G,A,]2 | %22
 [F,A,]2 F,2 F,2 G,4 G,2 | F,12 |] %24
V:3
 x12 | x12 | x12 | x12 | x12 | x12 | x12 | x4[K:bass] x8 | %8
 [DF]2 [CF]2 [B,F]2 [A,F]2 [B,=F^G]2 [A,^FA]2 | F2 F2 F2 F2 [Ac]2 [CGB]2 | %10
 [DF]2 [CE]2 [EG]2 F2 F2 B2 | z2 D2 D2 D6 | z2 E2 E2 E2 F2 G2 | z2 G2 G2 G2 c2 A2 | %14
 F2 F2 F2 E2 c2 B2 | [A,C]2 C2 D2 E6 | [DF]2 [CF]2 [B,F]2 [A,F]2 [B,=F^G]2 [A,^FA]2 | %17
 F2 F2 F2 F2 [FA]2 F2 | z2 D2 D2 D2 E2 F2 | .F6 z6 | z2 D2 D2 D2 E2 D2 | z2 D2 D2 C2 [CA]2 C2 | %22
 z2 A,2 A,2 B,4 B,2 | A,12 |] %24
V:4
 x12 | x12 | x12 | x12 | x12 | x12 | x12 | x12 | x12 | x12 | x12 | x12 | x4[K:treble] x8 | x12 | %14
 x12 | A,,12 | x12 | x12 | x12 | x12 | x12 | x12 | D,12- | D,12 |] %24

